X:16
T:Congress, The
C:Traditional
R:reel
K:A
M:4/4
L:1/8
|: eAAG A2Bd| eaaf gedg| eAcA eAcA| BGGA Bdeg|
! eAAG A2Bd| eaaf gedB| cBcd eged| cABG A2Bd:| ! |:
eaag abag| eaag egdg| egdg egdg| eaaf gedg|
! eaag a2ag| eaaf gedB| c2cd e2ed| cABG A2Bd:|
%%footer JamBuddy 2025 - No rights reserved, public domain

